app/images/Hard-disk-sential.svg

<svg xmlns="http://www.w3.org/2000/svg" width="461" height="39" fill="none"><path fill="#22A1BF" d="M23.094 4.4h7.776V38h-7.776V4.4ZM7.83 38H.054V4.4H7.83V38Zm15.84-13.776H7.254v-6.576H23.67v6.576ZM54.132 38v-5.04l-.48-1.104v-9.024c0-1.6-.496-2.848-1.488-3.744-.96-.896-2.448-1.344-4.464-1.344-1.376 0-2.736.224-4.08.672-1.312.416-2.432.992-3.36 1.728l-2.688-5.232c1.408-.992 3.104-1.76 5.088-2.304 1.984-.544 4-.816 6.048-.816 3.936 0 6.992.928 9.168 2.784 2.176 1.856 3.264 4.752 3.264 8.688V38h-7.008Zm-7.872.384c-2.016 0-3.744-.336-5.184-1.008-1.44-.704-2.544-1.648-3.312-2.832-.768-1.184-1.152-2.512-1.152-3.984 0-1.536.368-2.88 1.104-4.032.768-1.152 1.968-2.048 3.6-2.688 1.632-.672 3.76-1.008 6.384-1.008h6.864V27.2h-6.048c-1.76 0-2.976.288-3.648.864-.64.576-.96 1.296-.96 2.16 0 .96.368 1.728 1.104 2.304.768.544 1.808.816 3.12.816 1.248 0 2.368-.288 3.36-.864.992-.608 1.712-1.488 2.16-2.64l1.152 3.456c-.544 1.664-1.536 2.928-2.976 3.792-1.44.864-3.296 1.296-5.568 1.296ZM67.917 38V12.176h7.152v7.296L74.06 17.36c.768-1.824 2-3.2 3.696-4.128 1.696-.96 3.76-1.44 6.192-1.44v6.912a8.765 8.765 0 0 0-.864-.048 6.586 6.586 0 0 0-.816-.048c-2.048 0-3.712.592-4.992 1.776-1.248 1.152-1.872 2.96-1.872 5.424V38h-7.488Zm31.385.384c-2.432 0-4.624-.544-6.576-1.632-1.952-1.12-3.504-2.672-4.656-4.656-1.12-1.984-1.68-4.32-1.68-7.008 0-2.72.56-5.072 1.68-7.056 1.152-1.984 2.704-3.52 4.656-4.608 1.952-1.088 4.144-1.632 6.576-1.632 2.176 0 4.08.48 5.712 1.44 1.632.96 2.896 2.416 3.792 4.368.896 1.952 1.344 4.448 1.344 7.488 0 3.008-.432 5.504-1.296 7.488-.864 1.952-2.112 3.408-3.744 4.368-1.6.96-3.536 1.44-5.808 1.44Zm1.296-6.144c1.216 0 2.32-.288 3.312-.864.992-.576 1.776-1.392 2.352-2.448.608-1.088.912-2.368.912-3.84 0-1.504-.304-2.784-.912-3.84-.576-1.056-1.36-1.872-2.352-2.448-.992-.576-2.096-.864-3.312-.864-1.248 0-2.368.288-3.36.864-.992.576-1.792 1.392-2.4 2.448-.576 1.056-.864 2.336-.864 3.84 0 1.472.288 2.752.864 3.84.608 1.056 1.408 1.872 2.4 2.448.992.576 2.112.864 3.36.864Zm6.768 5.76v-5.28l.144-7.68-.48-7.632V2.384h7.488V38h-7.152Zm28.204 0V4.4h15.264c3.648 0 6.864.704 9.648 2.112 2.784 1.376 4.96 3.312 6.528 5.808 1.568 2.496 2.352 5.456 2.352 8.88 0 3.392-.784 6.352-2.352 8.88-1.568 2.496-3.744 4.448-6.528 5.856-2.784 1.376-6 2.064-9.648 2.064H135.57Zm7.776-6.384h7.104c2.24 0 4.176-.416 5.808-1.248 1.664-.864 2.944-2.08 3.84-3.648.928-1.568 1.392-3.408 1.392-5.52 0-2.144-.464-3.984-1.392-5.52-.896-1.568-2.176-2.768-3.84-3.6-1.632-.864-3.568-1.296-5.808-1.296h-7.104v20.832ZM174.698 38V12.176h7.488V38h-7.488Zm3.744-29.424c-1.376 0-2.496-.4-3.36-1.2-.864-.8-1.296-1.792-1.296-2.976s.432-2.176 1.296-2.976c.864-.8 1.984-1.2 3.36-1.2s2.496.384 3.36 1.152c.864.736 1.296 1.696 1.296 2.88 0 1.248-.432 2.288-1.296 3.12-.832.8-1.952 1.2-3.36 1.2Zm19.382 29.808c-2.208 0-4.336-.256-6.384-.768-2.016-.544-3.616-1.216-4.8-2.016l2.496-5.376c1.184.736 2.576 1.344 4.176 1.824 1.632.448 3.232.672 4.8.672 1.728 0 2.944-.208 3.648-.624.736-.416 1.104-.992 1.104-1.728 0-.608-.288-1.056-.864-1.344-.544-.32-1.28-.56-2.208-.72-.928-.16-1.952-.32-3.072-.48a42.835 42.835 0 0 1-3.312-.624 11.898 11.898 0 0 1-3.072-1.248 6.477 6.477 0 0 1-2.256-2.208c-.544-.928-.816-2.128-.816-3.6 0-1.632.464-3.072 1.392-4.32.96-1.248 2.336-2.224 4.128-2.928 1.792-.736 3.936-1.104 6.432-1.104 1.76 0 3.552.192 5.376.576 1.824.384 3.344.944 4.56 1.68l-2.496 5.328c-1.248-.736-2.512-1.232-3.792-1.488a16.199 16.199 0 0 0-3.648-.432c-1.664 0-2.88.224-3.648.672-.768.448-1.152 1.024-1.152 1.728 0 .64.272 1.12.816 1.44.576.32 1.328.576 2.256.768.928.192 1.936.368 3.024.528 1.12.128 2.24.336 3.36.624a11.13 11.13 0 0 1 3.024 1.248 6.08 6.08 0 0 1 2.256 2.16c.576.896.864 2.08.864 3.552 0 1.6-.48 3.024-1.44 4.272-.96 1.216-2.352 2.176-4.176 2.88-1.792.704-3.984 1.056-6.576 1.056Zm23.004-5.664.192-9.12 12.048-11.424h8.928l-11.568 11.76-3.888 3.168-5.712 5.616ZM214.636 38V2.384h7.488V38h-7.488Zm19.248 0-8.736-10.848 4.704-5.808L242.956 38h-9.072Zm37.601.576c-2.688 0-5.264-.352-7.728-1.056-2.464-.736-4.448-1.68-5.952-2.832l2.64-5.856c1.44 1.024 3.136 1.872 5.088 2.544 1.984.64 3.984.96 6 .96 1.536 0 2.768-.144 3.696-.432.96-.32 1.664-.752 2.112-1.296a2.861 2.861 0 0 0 .672-1.872c0-.896-.352-1.6-1.056-2.112-.704-.544-1.632-.976-2.784-1.296a41.997 41.997 0 0 0-3.84-.96 54.465 54.465 0 0 1-4.176-1.152 17.82 17.82 0 0 1-3.792-1.728 8.717 8.717 0 0 1-2.832-2.784c-.704-1.152-1.056-2.624-1.056-4.416 0-1.92.512-3.664 1.536-5.232 1.056-1.6 2.624-2.864 4.704-3.792 2.112-.96 4.752-1.44 7.92-1.44 2.112 0 4.192.256 6.24.768 2.048.48 3.856 1.216 5.424 2.208l-2.4 5.904c-1.568-.896-3.136-1.552-4.704-1.968-1.568-.448-3.104-.672-4.608-.672-1.504 0-2.736.176-3.696.528-.96.352-1.648.816-2.064 1.392-.416.544-.624 1.184-.624 1.92 0 .864.352 1.568 1.056 2.112.704.512 1.632.928 2.784 1.248 1.152.32 2.416.64 3.792.96 1.408.32 2.8.688 4.176 1.104 1.408.416 2.688.976 3.84 1.68a8.274 8.274 0 0 1 2.784 2.784c.736 1.152 1.104 2.608 1.104 4.368a9.083 9.083 0 0 1-1.584 5.184c-1.056 1.568-2.64 2.832-4.752 3.792-2.08.96-4.72 1.44-7.92 1.44Zm31.857-.192c-2.944 0-5.536-.576-7.776-1.728-2.208-1.152-3.92-2.72-5.136-4.704-1.216-2.016-1.824-4.304-1.824-6.864 0-2.592.592-4.88 1.776-6.864a12.705 12.705 0 0 1 4.944-4.704c2.08-1.152 4.432-1.728 7.056-1.728 2.528 0 4.8.544 6.816 1.632 2.048 1.056 3.664 2.592 4.848 4.608 1.184 1.984 1.776 4.368 1.776 7.152 0 .288-.016.624-.048 1.008-.032.352-.064.688-.096 1.008h-20.976v-4.368h17.04l-2.88 1.296c0-1.344-.272-2.512-.816-3.504a5.79 5.79 0 0 0-2.256-2.304c-.96-.576-2.08-.864-3.36-.864-1.28 0-2.416.288-3.408.864-.96.544-1.712 1.328-2.256 2.352-.544.992-.816 2.176-.816 3.552v1.152c0 1.408.304 2.656.912 3.744a6.497 6.497 0 0 0 2.64 2.448c1.152.544 2.496.816 4.032.816 1.376 0 2.576-.208 3.6-.624a8.757 8.757 0 0 0 2.88-1.872l3.984 4.32c-1.184 1.344-2.672 2.384-4.464 3.12-1.792.704-3.856 1.056-6.192 1.056Zm33.162-26.592c2.048 0 3.872.416 5.472 1.248 1.632.8 2.912 2.048 3.84 3.744.928 1.664 1.392 3.808 1.392 6.432V38h-7.488V24.368c0-2.08-.464-3.616-1.392-4.608-.896-.992-2.176-1.488-3.84-1.488-1.184 0-2.256.256-3.216.768-.928.48-1.664 1.232-2.208 2.256-.512 1.024-.768 2.336-.768 3.936V38h-7.488V12.176h7.152v7.152l-1.344-2.16a9.565 9.565 0 0 1 3.984-3.984c1.728-.928 3.696-1.392 5.904-1.392Zm28.051 26.592c-3.04 0-5.408-.768-7.104-2.304-1.696-1.568-2.544-3.888-2.544-6.96V6.464h7.488v22.56c0 1.088.288 1.936.864 2.544.576.576 1.36.864 2.352.864 1.184 0 2.192-.32 3.024-.96l2.016 5.28c-.768.544-1.696.96-2.784 1.248-1.056.256-2.16.384-3.312.384Zm-13.632-19.872v-5.76h17.904v5.76h-17.904ZM374.854 38V12.176h7.488V38h-7.488Zm3.744-29.424c-1.376 0-2.496-.4-3.36-1.2-.864-.8-1.296-1.792-1.296-2.976s.432-2.176 1.296-2.976c.864-.8 1.984-1.2 3.36-1.2s2.496.384 3.36 1.152c.864.736 1.296 1.696 1.296 2.88 0 1.248-.432 2.288-1.296 3.12-.832.8-1.952 1.2-3.36 1.2Zm26.39 3.216c2.048 0 3.872.416 5.472 1.248 1.632.8 2.912 2.048 3.84 3.744.928 1.664 1.392 3.808 1.392 6.432V38h-7.488V24.368c0-2.08-.464-3.616-1.392-4.608-.896-.992-2.176-1.488-3.84-1.488-1.184 0-2.256.256-3.216.768-.928.48-1.664 1.232-2.208 2.256-.512 1.024-.768 2.336-.768 3.936V38h-7.488V12.176h7.152v7.152l-1.344-2.16a9.565 9.565 0 0 1 3.984-3.984c1.728-.928 3.696-1.392 5.904-1.392Zm30.495 26.592c-2.944 0-5.536-.576-7.776-1.728-2.208-1.152-3.92-2.72-5.136-4.704-1.216-2.016-1.824-4.304-1.824-6.864 0-2.592.592-4.88 1.776-6.864a12.705 12.705 0 0 1 4.944-4.704c2.08-1.152 4.432-1.728 7.056-1.728 2.528 0 4.8.544 6.816 1.632 2.048 1.056 3.664 2.592 4.848 4.608 1.184 1.984 1.776 4.368 1.776 7.152 0 .288-.016.624-.048 1.008-.032.352-.064.688-.096 1.008h-20.976v-4.368h17.04l-2.88 1.296c0-1.344-.272-2.512-.816-3.504a5.79 5.79 0 0 0-2.256-2.304c-.96-.576-2.08-.864-3.36-.864-1.28 0-2.416.288-3.408.864-.96.544-1.712 1.328-2.256 2.352-.544.992-.816 2.176-.816 3.552v1.152c0 1.408.304 2.656.912 3.744a6.497 6.497 0 0 0 2.64 2.448c1.152.544 2.496.816 4.032.816 1.376 0 2.576-.208 3.6-.624a8.757 8.757 0 0 0 2.88-1.872l3.984 4.32c-1.184 1.344-2.672 2.384-4.464 3.12-1.792.704-3.856 1.056-6.192 1.056ZM452.948 38V2.384h7.488V38h-7.488Z"/></svg>

<svg width="461" height="39" viewBox="0 0 461 39" fill="none" xmlns="http://www.w3.org/2000/svg">
<path d="M23.0943 4.4H30.8703V38H23.0943V4.4ZM7.83031 38H0.0543127V4.4H7.83031V38ZM23.6703 24.224H7.25431V17.648H23.6703V24.224ZM54.1319 38V32.96L53.6519 31.856V22.832C53.6519 21.232 53.1559 19.984 52.1639 19.088C51.2039 18.192 49.7159 17.744 47.6999 17.744C46.3239 17.744 44.9639 17.968 43.6199 18.416C42.3079 18.832 41.1879 19.408 40.2599 20.144L37.5719 14.912C38.9799 13.92 40.6759 13.152 42.6599 12.608C44.6439 12.064 46.6599 11.792 48.7079 11.792C52.6439 11.792 55.6999 12.72 57.8759 14.576C60.0519 16.432 61.1399 19.328 61.1399 23.264V38H54.1319ZM46.2599 38.384C44.2439 38.384 42.5159 38.048 41.0759 37.376C39.6359 36.672 38.5319 35.728 37.7639 34.544C36.9959 33.36 36.6119 32.032 36.6119 30.56C36.6119 29.024 36.9799 27.68 37.7159 26.528C38.4839 25.376 39.6839 24.48 41.3159 23.84C42.9479 23.168 45.0759 22.832 47.6999 22.832H54.5639V27.2H48.5159C46.7559 27.2 45.5399 27.488 44.8679 28.064C44.2279 28.64 43.9079 29.36 43.9079 30.224C43.9079 31.184 44.2759 31.952 45.0119 32.528C45.7799 33.072 46.8199 33.344 48.1319 33.344C49.3799 33.344 50.4999 33.056 51.4919 32.48C52.4839 31.872 53.2039 30.992 53.6519 29.84L54.8039 33.296C54.2599 34.96 53.2679 36.224 51.8279 37.088C50.3879 37.952 48.5319 38.384 46.2599 38.384ZM67.9169 38V12.176H75.0689V19.472L74.0609 17.36C74.8289 15.536 76.0609 14.16 77.7569 13.232C79.4529 12.272 81.5169 11.792 83.9489 11.792V18.704C83.6289 18.672 83.3409 18.656 83.0849 18.656C82.8289 18.624 82.5569 18.608 82.2689 18.608C80.2209 18.608 78.5569 19.2 77.2769 20.384C76.0289 21.536 75.4049 23.344 75.4049 25.808V38H67.9169ZM99.3018 38.384C96.8698 38.384 94.6778 37.84 92.7258 36.752C90.7738 35.632 89.2218 34.08 88.0698 32.096C86.9498 30.112 86.3898 27.776 86.3898 25.088C86.3898 22.368 86.9498 20.016 88.0698 18.032C89.2218 16.048 90.7738 14.512 92.7258 13.424C94.6778 12.336 96.8698 11.792 99.3018 11.792C101.478 11.792 103.382 12.272 105.014 13.232C106.646 14.192 107.91 15.648 108.806 17.6C109.702 19.552 110.15 22.048 110.15 25.088C110.15 28.096 109.718 30.592 108.854 32.576C107.99 34.528 106.742 35.984 105.11 36.944C103.51 37.904 101.574 38.384 99.3018 38.384ZM100.598 32.24C101.814 32.24 102.918 31.952 103.91 31.376C104.902 30.8 105.686 29.984 106.262 28.928C106.87 27.84 107.174 26.56 107.174 25.088C107.174 23.584 106.87 22.304 106.262 21.248C105.686 20.192 104.902 19.376 103.91 18.8C102.918 18.224 101.814 17.936 100.598 17.936C99.3498 17.936 98.2298 18.224 97.2378 18.8C96.2458 19.376 95.4458 20.192 94.8378 21.248C94.2618 22.304 93.9738 23.584 93.9738 25.088C93.9738 26.56 94.2618 27.84 94.8378 28.928C95.4458 29.984 96.2458 30.8 97.2378 31.376C98.2298 31.952 99.3498 32.24 100.598 32.24ZM107.366 38V32.72L107.51 25.04L107.03 17.408V2.384H114.518V38H107.366ZM135.57 38V4.4H150.834C154.482 4.4 157.698 5.104 160.482 6.512C163.266 7.888 165.442 9.824 167.01 12.32C168.578 14.816 169.362 17.776 169.362 21.2C169.362 24.592 168.578 27.552 167.01 30.08C165.442 32.576 163.266 34.528 160.482 35.936C157.698 37.312 154.482 38 150.834 38H135.57ZM143.346 31.616H150.45C152.69 31.616 154.626 31.2 156.258 30.368C157.922 29.504 159.202 28.288 160.098 26.72C161.026 25.152 161.49 23.312 161.49 21.2C161.49 19.056 161.026 17.216 160.098 15.68C159.202 14.112 157.922 12.912 156.258 12.08C154.626 11.216 152.69 10.784 150.45 10.784H143.346V31.616ZM174.698 38V12.176H182.186V38H174.698ZM178.442 8.576C177.066 8.576 175.946 8.176 175.082 7.376C174.218 6.576 173.786 5.584 173.786 4.4C173.786 3.216 174.218 2.224 175.082 1.424C175.946 0.623998 177.066 0.223997 178.442 0.223997C179.818 0.223997 180.938 0.607998 181.802 1.376C182.666 2.112 183.098 3.072 183.098 4.256C183.098 5.504 182.666 6.544 181.802 7.376C180.97 8.176 179.85 8.576 178.442 8.576ZM197.824 38.384C195.616 38.384 193.488 38.128 191.44 37.616C189.424 37.072 187.824 36.4 186.64 35.6L189.136 30.224C190.32 30.96 191.712 31.568 193.312 32.048C194.944 32.496 196.544 32.72 198.112 32.72C199.84 32.72 201.056 32.512 201.76 32.096C202.496 31.68 202.864 31.104 202.864 30.368C202.864 29.76 202.576 29.312 202 29.024C201.456 28.704 200.72 28.464 199.792 28.304C198.864 28.144 197.84 27.984 196.72 27.824C195.632 27.664 194.528 27.456 193.408 27.2C192.288 26.912 191.264 26.496 190.336 25.952C189.408 25.408 188.656 24.672 188.08 23.744C187.536 22.816 187.264 21.616 187.264 20.144C187.264 18.512 187.728 17.072 188.656 15.824C189.616 14.576 190.992 13.6 192.784 12.896C194.576 12.16 196.72 11.792 199.216 11.792C200.976 11.792 202.768 11.984 204.592 12.368C206.416 12.752 207.936 13.312 209.152 14.048L206.656 19.376C205.408 18.64 204.144 18.144 202.864 17.888C201.616 17.6 200.4 17.456 199.216 17.456C197.552 17.456 196.336 17.68 195.568 18.128C194.8 18.576 194.416 19.152 194.416 19.856C194.416 20.496 194.688 20.976 195.232 21.296C195.808 21.616 196.56 21.872 197.488 22.064C198.416 22.256 199.424 22.432 200.512 22.592C201.632 22.72 202.752 22.928 203.872 23.216C204.992 23.504 206 23.92 206.896 24.464C207.824 24.976 208.576 25.696 209.152 26.624C209.728 27.52 210.016 28.704 210.016 30.176C210.016 31.776 209.536 33.2 208.576 34.448C207.616 35.664 206.224 36.624 204.4 37.328C202.608 38.032 200.416 38.384 197.824 38.384ZM220.828 32.72L221.02 23.6L233.068 12.176H241.996L230.428 23.936L226.54 27.104L220.828 32.72ZM214.636 38V2.384H222.124V38H214.636ZM233.884 38L225.148 27.152L229.852 21.344L242.956 38H233.884ZM271.485 38.576C268.797 38.576 266.221 38.224 263.757 37.52C261.293 36.784 259.309 35.84 257.805 34.688L260.445 28.832C261.885 29.856 263.581 30.704 265.533 31.376C267.517 32.016 269.517 32.336 271.533 32.336C273.069 32.336 274.301 32.192 275.229 31.904C276.189 31.584 276.893 31.152 277.341 30.608C277.789 30.064 278.013 29.44 278.013 28.736C278.013 27.84 277.661 27.136 276.957 26.624C276.253 26.08 275.325 25.648 274.173 25.328C273.021 24.976 271.741 24.656 270.333 24.368C268.957 24.048 267.565 23.664 266.157 23.216C264.781 22.768 263.517 22.192 262.365 21.488C261.213 20.784 260.269 19.856 259.533 18.704C258.829 17.552 258.477 16.08 258.477 14.288C258.477 12.368 258.989 10.624 260.013 9.056C261.069 7.456 262.637 6.192 264.717 5.264C266.829 4.304 269.469 3.824 272.637 3.824C274.749 3.824 276.829 4.08 278.877 4.592C280.925 5.072 282.733 5.808 284.301 6.8L281.901 12.704C280.333 11.808 278.765 11.152 277.197 10.736C275.629 10.288 274.093 10.064 272.589 10.064C271.085 10.064 269.853 10.24 268.893 10.592C267.933 10.944 267.245 11.408 266.829 11.984C266.413 12.528 266.205 13.168 266.205 13.904C266.205 14.768 266.557 15.472 267.261 16.016C267.965 16.528 268.893 16.944 270.045 17.264C271.197 17.584 272.461 17.904 273.837 18.224C275.245 18.544 276.637 18.912 278.013 19.328C279.421 19.744 280.701 20.304 281.853 21.008C283.005 21.712 283.933 22.64 284.637 23.792C285.373 24.944 285.741 26.4 285.741 28.16C285.741 30.048 285.213 31.776 284.157 33.344C283.101 34.912 281.517 36.176 279.405 37.136C277.325 38.096 274.685 38.576 271.485 38.576ZM303.342 38.384C300.398 38.384 297.806 37.808 295.566 36.656C293.358 35.504 291.646 33.936 290.43 31.952C289.214 29.936 288.606 27.648 288.606 25.088C288.606 22.496 289.198 20.208 290.382 18.224C291.598 16.208 293.246 14.64 295.326 13.52C297.406 12.368 299.758 11.792 302.382 11.792C304.91 11.792 307.182 12.336 309.198 13.424C311.246 14.48 312.862 16.016 314.046 18.032C315.23 20.016 315.822 22.4 315.822 25.184C315.822 25.472 315.806 25.808 315.774 26.192C315.742 26.544 315.71 26.88 315.678 27.2H294.702V22.832H311.742L308.862 24.128C308.862 22.784 308.59 21.616 308.046 20.624C307.502 19.632 306.75 18.864 305.79 18.32C304.83 17.744 303.71 17.456 302.43 17.456C301.15 17.456 300.014 17.744 299.022 18.32C298.062 18.864 297.31 19.648 296.766 20.672C296.222 21.664 295.95 22.848 295.95 24.224V25.376C295.95 26.784 296.254 28.032 296.862 29.12C297.502 30.176 298.382 30.992 299.502 31.568C300.654 32.112 301.998 32.384 303.534 32.384C304.91 32.384 306.11 32.176 307.134 31.76C308.19 31.344 309.15 30.72 310.014 29.888L313.998 34.208C312.814 35.552 311.326 36.592 309.534 37.328C307.742 38.032 305.678 38.384 303.342 38.384ZM336.504 11.792C338.552 11.792 340.376 12.208 341.976 13.04C343.608 13.84 344.888 15.088 345.816 16.784C346.744 18.448 347.208 20.592 347.208 23.216V38H339.72V24.368C339.72 22.288 339.256 20.752 338.328 19.76C337.432 18.768 336.152 18.272 334.488 18.272C333.304 18.272 332.232 18.528 331.272 19.04C330.344 19.52 329.608 20.272 329.064 21.296C328.552 22.32 328.296 23.632 328.296 25.232V38H320.808V12.176H327.96V19.328L326.616 17.168C327.544 15.44 328.872 14.112 330.6 13.184C332.328 12.256 334.296 11.792 336.504 11.792ZM364.555 38.384C361.515 38.384 359.147 37.616 357.451 36.08C355.755 34.512 354.907 32.192 354.907 29.12V6.464H362.395V29.024C362.395 30.112 362.683 30.96 363.259 31.568C363.835 32.144 364.619 32.432 365.611 32.432C366.795 32.432 367.803 32.112 368.635 31.472L370.651 36.752C369.883 37.296 368.955 37.712 367.867 38C366.811 38.256 365.707 38.384 364.555 38.384ZM350.923 18.512V12.752H368.827V18.512H350.923ZM374.854 38V12.176H382.342V38H374.854ZM378.598 8.576C377.222 8.576 376.102 8.176 375.238 7.376C374.374 6.576 373.942 5.584 373.942 4.4C373.942 3.216 374.374 2.224 375.238 1.424C376.102 0.623998 377.222 0.223997 378.598 0.223997C379.974 0.223997 381.094 0.607998 381.958 1.376C382.822 2.112 383.254 3.072 383.254 4.256C383.254 5.504 382.822 6.544 381.958 7.376C381.126 8.176 380.006 8.576 378.598 8.576ZM404.988 11.792C407.036 11.792 408.86 12.208 410.46 13.04C412.092 13.84 413.372 15.088 414.3 16.784C415.228 18.448 415.692 20.592 415.692 23.216V38H408.204V24.368C408.204 22.288 407.74 20.752 406.812 19.76C405.916 18.768 404.636 18.272 402.972 18.272C401.788 18.272 400.716 18.528 399.756 19.04C398.828 19.52 398.092 20.272 397.548 21.296C397.036 22.32 396.78 23.632 396.78 25.232V38H389.292V12.176H396.444V19.328L395.1 17.168C396.028 15.44 397.356 14.112 399.084 13.184C400.812 12.256 402.78 11.792 404.988 11.792ZM435.483 38.384C432.539 38.384 429.947 37.808 427.707 36.656C425.499 35.504 423.787 33.936 422.571 31.952C421.355 29.936 420.747 27.648 420.747 25.088C420.747 22.496 421.339 20.208 422.523 18.224C423.739 16.208 425.387 14.64 427.467 13.52C429.547 12.368 431.899 11.792 434.523 11.792C437.051 11.792 439.323 12.336 441.339 13.424C443.387 14.48 445.003 16.016 446.187 18.032C447.371 20.016 447.963 22.4 447.963 25.184C447.963 25.472 447.947 25.808 447.915 26.192C447.883 26.544 447.851 26.88 447.819 27.2H426.843V22.832H443.883L441.003 24.128C441.003 22.784 440.731 21.616 440.187 20.624C439.643 19.632 438.891 18.864 437.931 18.32C436.971 17.744 435.851 17.456 434.571 17.456C433.291 17.456 432.155 17.744 431.163 18.32C430.203 18.864 429.451 19.648 428.907 20.672C428.363 21.664 428.091 22.848 428.091 24.224V25.376C428.091 26.784 428.395 28.032 429.003 29.12C429.643 30.176 430.523 30.992 431.643 31.568C432.795 32.112 434.139 32.384 435.675 32.384C437.051 32.384 438.251 32.176 439.275 31.76C440.331 31.344 441.291 30.72 442.155 29.888L446.139 34.208C444.955 35.552 443.467 36.592 441.675 37.328C439.883 38.032 437.819 38.384 435.483 38.384ZM452.948 38V2.384H460.436V38H452.948Z" fill="#22A1BF"/>
</svg>
